**kern	**kern	**dynam
*part1	*part1	*part1
*staff2	*staff1	*
*I"Piano	*	*
*clefF4	*clefG2	*
*k[b-e-a-d-]	*k[b-e-a-d-]	*
=1	=1	=1
2EE-	4b- 4dd- 4gg	.
.	4g 4b- 4ee-	.
4E-	4a- 4cc 4ff	.
=	=	=
!	!LO:TX:a:Bi:t=rit.  -   -   -   -   -	!
2EE-	4f 4a- 4dd-	.
.	4g 4b- 4ee-	.
4E-	4e- 4g 4cc	.
=	=	=
2EE-	4f 4a- 4dd-	.
.	4d- 4f 4b-	.
4E-	4e- 4g 4cc	.
=	=	=
*	*^	*
!	!	!	!LO:DY:a
2.AA-	2.c 2.a-	(4a-	p
.	.	4g	.
.	.	4f	.
=	=	=	=
2.BB-	(4.a-	4e-	.
.	.	4d-	.
.	8g	.	.
.	4b-)	4c)	.
=	=	=	=
[2.EE-	2dd-	(4B-	.
.	.	4A-<	.
.	4b-	4G<	.
=	=	=	=
4EE-]	2g	4F<	.
4E-	.	4E-<	.
4D-	[4e-	4D-<)	.
=	=	=	=
*^	*	*	*
!	!	!	!	!LO:DY:a
4C	2C	(2a-	2.e-]	<
4E-	.	.	.	.
4BB-	4BB-	4g)	.	.
*v	*v	*	*	*
*	*v	*v	*
=	=	=
*-	*-	*-
!!!system-decoration: {(s1,s2)}
!!!RDF**kern: < = below
